X: 4380
T: MARCH IN "ALADDIN."
R: March
%R: march, polka, reel
B: James Kerr "Merry Melodies" v.4 p.41 #380
Z: 2016 John Chambers <jc:trillian.mit.edu>
M: 2/4
L: 1/16
K: G
|:\
g4 dcBc | d2d2 B4 | e2e2 ^c2c2 | d^cdc d^def |\
g4 dcBc | d2d2 B4 | edcB A2(dc) | B2G2G2z2 H:|
A2AA A2A2 | f2f2 d4 | e2e2f2f2 | (ag)fg e4 |\
A2AA A2A2 | f2f2 d4 | e2e2^c2c2 | d^cdc d^d"_D.C."ef |]

%%sep 1 1 500
%%sep 1 1 500

